src/assets/icons/selector.svg

<svg viewBox="0 0 22 23" fill="inherit" xmlns="http://www.w3.org/2000/svg">
    <path d="M1.35029 0.264337C1.04578 0.264338 0.792968 0.354181 0.597616 0.539154C0.396519 0.724127 0.298844 0.951378 0.298844 1.23148L0.287353 21.9537C0.327573 22.1334 0.419503 22.2972 0.563144 22.4399C0.76424 22.6354 1.01705 22.7306 1.32157 22.7306L11.1294 22.7358C11.4109 22.7358 11.6579 22.6407 11.8648 22.4452C12.0774 22.2496 12.1808 22.0277 12.1808 21.7687L12.1808 19.9295L14.3584 19.9295C14.6399 19.9295 14.887 19.8344 15.0938 19.6389C15.3064 19.4433 15.4098 19.2214 15.4098 18.9624L15.4098 16.9594L17.5874 16.9594C17.892 16.9594 18.1448 16.8643 18.3401 16.6687C18.5412 16.4785 18.6389 16.2512 18.6389 15.9923L18.6389 13.9893L20.6384 13.9893C20.9429 13.9893 21.1957 13.8942 21.391 13.6986C21.5921 13.5031 21.6898 13.2705 21.6898 12.9904L21.6956 10.2159C21.6956 9.93575 21.5979 9.69793 21.3968 9.50239C21.1957 9.30684 20.9486 9.21172 20.6441 9.21172L18.4665 9.21172L18.4665 7.17702C18.4665 6.91806 18.3631 6.69081 18.1505 6.50055C17.9379 6.30501 17.6966 6.20988 17.4151 6.20988L15.2375 6.20988L15.2375 4.20689C15.2375 3.94793 15.1341 3.72068 14.9215 3.53042C14.7089 3.34016 14.4676 3.23975 14.186 3.23975L11.974 3.23975L11.974 1.23676C11.974 0.956663 11.8763 0.724126 11.6752 0.544439C11.4741 0.359466 11.227 0.269624 10.9225 0.269624L1.35029 0.264337Z" fill="#inherit"/>
</svg>

<svg viewBox="0 0 22 23" fill="inherit" xmlns="http://www.w3.org/2000/svg"><path d="M1.35.264c-.304 0-.557.09-.752.275a.894.894 0 0 0-.3.692l-.01 20.723c.04.18.132.343.275.486.201.195.454.29.759.29l9.807.006c.282 0 .529-.095.736-.29.212-.196.316-.418.316-.677v-1.84h2.177c.282 0 .529-.095.736-.29.212-.196.316-.418.316-.677V16.96h2.177c.305 0 .558-.095.753-.29a.9.9 0 0 0 .299-.677V13.99h2c.304 0 .557-.095.752-.29a.944.944 0 0 0 .299-.709l.006-2.774a.955.955 0 0 0-.3-.714 1.029 1.029 0 0 0-.752-.29h-2.177V7.177a.88.88 0 0 0-.316-.676 1.045 1.045 0 0 0-.736-.291h-2.177V4.207a.88.88 0 0 0-.316-.677 1.068 1.068 0 0 0-.736-.29h-2.212V1.237a.886.886 0 0 0-.299-.693c-.2-.185-.448-.274-.753-.274L1.35.264z" fill="#inherit"/></svg>
